X:1
T:Bolwell, 87.87.77
T:Bolwell, 87.87.77
T:Arthur Seymour Sullivan (1842-1900)
T:Public Domain Courtesy of the Cyber Hymnal™
C:Arthur Seymour Sullivan (1842-1900)
Z:Public Domain
Z:Courtesy of the Cyber Hymnal™
%%score ( 1 2 ) ( 3 4 )
L:1/8
Q:1/4=108
M:none
K:D
V:1 treble 
V:2 treble 
V:3 bass 
V:4 bass 
V:1
 [DF]3 [DF] [CE]2 D2 | [DA]2 [DG]2 [DF]2 [CE]2 | D2 D2 [B,F]2 [B,E]2 | [A,D]2 [A,C]2 [A,D]4 | %4
 [DF]3 [DF] [EA]2 [DF]2 | [Dd]2 [Dc]2 [DB]2 [DA]2 | [E^G]2 [DF]2 [CE]2 [DA]2 | [EA]2 [E^G]2 [EA]4 | %8
 [CE]3 [CE] [=CF]2 [CF]2 | [B,G]2 z [G,E]4 x | B,2 [^A,C]2 [B,D]2 (GE) | [A,D]4 [CE]4 | D8 |] %13
V:2
 x6 D2 | x8 | D2 D2 x4 | x8 | x8 | x8 | x8 | x8 | x8 | x2 F2 A, x3 | B,2 x2 B,2 x2 | x8 | D8 |] %13
V:3
 [D,A,]3 [D,A,] [A,,G,]2 [B,,F,]2 | [F,,C]2 [G,,B,]2 [A,,A,]2 [A,,G,]2 | %2
 [B,,F,]2 [B,,F,]2 [E,,A,]2 [E,,G,]2 | [A,,F,]2 [A,,E,]2 [D,F,]4 | %4
 [D,A,]3 [D,A,] [A,,C]2 [B,,B,]2 | [F,,A,]2 [F,A,]2 G,2 [=F,A,]2 | %6
 [E,B,]2 [^G,,B,]2 [A,,C]2 [F,A,]2 | [E,C]2 [E,B,]2 [A,,C]4 | [A,,A,]3 [A,,A,] [A,,A,]2 [A,,A,]2 | %9
 [B,,E,]2 [B,,^D,]2 E,4 | [G,,D,]2 [F,,F,]2 [B,,F,]2 [G,,G,]2 | [A,,F,]4 [A,,G,]4 | [D,F,]8 |] %13
V:4
 x8 | x8 | x8 | x8 | x8 | x4 G,2 x2 | x8 | x8 | x8 | x4 E,4 | x8 | x8 | x8 |] %13

